X:1
T:James Gibb editions
T:I know not what may befall me  - Barnby
%%score [ ( 1 2 ) ( 3 4 ) ]
L:1/8
Q:1/4=80
M:4/4
K:F
V:1 treble nm="Midi_74"
V:2 treble 
V:3 bass nm="Midi_74"
V:4 bass 
V:1
"^Onus meum leve (87. 96. 87)""^I know not what may befall me""^Joseph Barnby\n(1838-96)" C2 | %1
 F2 F2 G2 FG | A4 c2 || c2 | BB B2 A2 G2 | c6 || F2 | E2 D2 C2 AA | G2 F2 E2 ||[M:4/4] G2 | %10
 A=B c2 c2 d2 | c4 || c4 |"^1" d2 c2 A2 B2 | c2 A2 F2 || GG | A2 B2 G3 F | F6 || F4 F4 |] %19
V:2
 C2 | C2 F2 E2- DE | F4 F2 || F2 | FF F2 F2 E2 | F6 || C2 | B,2 B,2 B,2 A,A, | D2 D2 E2 || %9
[M:4/4] C2 | C2 F2 E2 F2 | E4 || F4 | F2 A2 ^F2 G2 | G2 F2 D2 || DD | F2 D2 E3 F | F6 || D4 C4 |] %19
V:3
 C,2 | A,2 A,2 B,2 B,B, | C4 A,2 || A,2 | B,B, B,2 C2 C2 | C6 || A,2 | G,2 F,2 G,2 CC | %8
"^1" B,2 A,2 G,2 ||[M:4/4] C2 | A,2 A,2 G,2 =B,2 | C4 || A,4 | B,2 _E2 D2 D2 | C2 C2 C2 || B,B, | %16
 A,2 G,2 B,3 A, | A,6 || B,4 A,4 |] %19
V:4
 C,2 | F,2 F,2 F,2 F,F, | F,4 F,2 || F,2 | D,D, D,2 C,2 B,,2 | A,,6 || F,2 | C,2 D,2 E,2 F,F, | %8
 B,,2 B,,2 C,2 ||[M:4/4] E,2 | F,2 D,2 G,2 G,2 | C,4 || F,4 | B,,2 C,2 D,2 G,2 | %14
 !courtesy!=E,2 F,2 B,,2 || B,,B,, | C,2 C,2 C,3 F, | F,6 || B,,4 F,,4 |] %19

